X: 40832
T: Tralee Gaol
R: polka
M: 2/4
K: Edorian
|:BE EF/A/|BA B/c/d|BE EF/E/|D>E FA|
BE EF/A/|BA B/c/d|BA dF|F/E/D E2:|
|:Be ed/e/|f>e dA|Be ed/e/|f>e dc|
Be ed/e/|f/g/f/e/ dA|BA dF|F/E/D E2:|

